docs/assets/img/projects/mbloom/mbloom-logo.svg

<svg xmlns="http://www.w3.org/2000/svg" width="513" height="120" viewBox="0 0 513 120"><path fill="#78787A" d="M168.35 38.788c-12 0-19.67 4.93-25.296 14.39V8.863c0-6.274-3.037-8.863-7.967-8.813h-.3c-4.928 0-7.965 2.54-7.965 8.813v103.17c10.107 4.282 20.663 7.22 31.717 7.22 23.85.448 42.87-11.85 43.717-39.983.498-27.834-16.78-40.482-33.908-40.482zm16.18 40.532c-.198 17.278-9.758 25.593-24.347 25.593-5.13 0-10.556-1.295-16.133-3.386V79.32c0-11.652 5.776-25.793 19.668-25.793 13.444 0 21.26 10.207 20.813 25.793zm71.155 34.456c-4.183-2.888-6.97-7.17-8.465-9.96-.35-.546-.896-.248-.896-.248-14.69 4.88-19.37-1.543-19.37-14.14V44.364h.05V9.46c0-6.72-3.236-9.46-8.514-9.46h-.3c-5.227 0-8.514 2.74-8.514 9.46v80.167c0 27.834 16.88 36.547 45.96 24.796.596-.2.05-.647.05-.647zm230.64-75.635c-11.055-.148-21.412 4.482-27.686 14.84-3.984-9.76-12.847-14.39-23.055-14.59-9.91-.15-19.52 5.08-24.697 14.09-1.643-9.708-8.216-14.24-17.527-14.44v-.098c-6.422-.35-14.09 1.643-21.71 6.573-.098.15-.347.497.1.946l7.67 8.565c.1.1.497.348.995.05l.1-.05c8.215-4.382 12.1-1.245 12.796 7.42v5.675l-.05.35v50.588c10.906.1 17.678-5.527 17.678-19.22V70.855c.747-11.204 8.216-18.125 18.473-18.274 10.856 0 14.94 7.818 14.79 19.868v9.81h.05v26.29c0 6.82 3.335 9.61 8.663 9.56h.348c5.33 0 8.665-2.788 8.665-9.56V72.996h-.05v-.647c0-12.2 7.768-19.87 18.474-20.018 10.206 0 15.036 8.017 14.887 19.52v1.94h-.15V108.5c0 6.822 3.336 9.61 8.664 9.56h.35c5.327 0 8.663-2.788 8.663-9.56v-40.98c-.946-15.833-7.17-29.377-26.44-29.377zm-393.263 0c-11.054-.148-21.41 4.482-27.684 14.84-3.984-9.76-12.847-14.39-23.054-14.59-9.91-.15-19.52 5.08-24.697 14.09C15.983 42.773 9.36 38.24 0 38.04v19.22c0 .748.05 1.495.05 2.292v48.996c0 6.82 3.336 9.61 8.664 9.56h.348c5.328 0 8.664-2.788 8.664-9.56v-35.85c0-12.3 7.668-20.018 18.573-20.167 10.854 0 14.937 7.82 14.787 19.868v24.697h.05v11.403c0 6.822 3.336 9.61 8.664 9.56h.35c5.327 0 8.663-2.788 8.663-9.56V72.946h-.1v-.597c0-12.2 7.768-19.87 18.474-20.018 10.207 0 15.037 8.017 14.888 19.52v27.036c0 13.693 6.722 19.32 17.477 19.22v-50.54c-.946-15.883-7.27-29.427-26.49-29.427z"/><path fill="#5EB6B1" d="M342.573 40.033c-13.743 0-26.888 9.61-33.61 20.714v.05l-.3.448c-.497.796-1.543 2.49-2.588 5.328-.448 1.244-.897 2.44-1.146 3.684-.45 1.743-.947 3.784-1.245 6.125-1.644 10.954-4.98 16.38-11.9 20.564-2.29 1.245-4.83 2.09-7.32 2.09-9.61 0-19.867-6.87-19.867-19.617 0-9.86 6.572-20.366 18.77-20.366 8.516 0 13.196 3.983 14.89 5.826.248.15.597.348.796-.25 1.892-6.92 5.975-12.398 8.813-15.535.548-.746.1-1.045.1-1.045-2.59-2.29-10.208-7.867-24.647-7.867-21.212 0-37.793 17.278-37.793 39.336 0 24.148 19.768 38.538 38.838 38.538 16.78 0 32.315-14.34 36.946-28.133 1.794-4.83 1.844-11.402 3.736-16.98 1.294-3.783 3.634-6.62 5.128-8.215 3.486-3.087 7.867-5.576 12.25-5.576 9.61 0 19.866 6.87 19.866 19.618 0 9.86-6.572 20.365-18.77 20.365-7.67 0-12.2-3.237-14.292-5.228-.348-.3-.548-.15-.647.05-1.343 4.08-4.082 9.808-9.758 15.484-.1.15-.25.498.2.846 2.638 2.29 10.306 7.818 24.546 7.818 21.212 0 37.793-17.278 37.793-39.336.1-24.35-19.667-38.74-38.787-38.74"/></svg>

<?xml version="1.0" encoding="UTF-8" standalone="no"?>
<svg width="578px" height="185px" viewBox="0 0 578 185" version="1.1" xmlns="http://www.w3.org/2000/svg" xmlns:xlink="http://www.w3.org/1999/xlink">
    <!-- Generator: Sketch 39.1 (31720) - http://www.bohemiancoding.com/sketch -->
    <title>Group</title>
    <desc>Created with Sketch.</desc>
    <defs></defs>
    <g id="Page-1" stroke="none" stroke-width="1" fill="none" fill-rule="evenodd">
        <g id="Group">
            <rect id="Rectangle" fill="#FFFFFF" x="0.5" y="0.5" width="577" height="184" rx="16"></rect>
            <g id="mbloom-logo" transform="translate(32.500000, 32.500000)">
                <path d="M168.35,38.788 C156.35,38.788 148.68,43.718 143.054,53.178 L143.054,8.863 C143.054,2.589 140.017,0 135.087,0.05 L134.787,0.05 C129.859,0.05 126.822,2.59 126.822,8.863 L126.822,112.033 C136.929,116.315 147.485,119.253 158.539,119.253 C182.389,119.701 201.409,107.403 202.256,79.27 C202.754,51.436 185.476,38.788 168.348,38.788 L168.35,38.788 Z M184.53,79.32 C184.332,96.598 174.772,104.913 160.183,104.913 C155.053,104.913 149.627,103.618 144.05,101.527 L144.05,79.32 C144.05,67.668 149.826,53.527 163.718,53.527 C177.162,53.527 184.978,63.734 184.531,79.32 L184.53,79.32 Z M255.685,113.776 C251.502,110.888 248.715,106.606 247.22,103.816 C246.87,103.27 246.324,103.568 246.324,103.568 C231.634,108.448 226.954,102.025 226.954,89.428 L226.954,44.364 L227.004,44.364 L227.004,9.46 C227.004,2.74 223.768,0 218.49,0 L218.19,0 C212.963,0 209.676,2.74 209.676,9.46 L209.676,89.627 C209.676,117.461 226.556,126.174 255.636,114.423 C256.232,114.223 255.686,113.776 255.686,113.776 L255.685,113.776 Z M486.325,38.141 C475.27,37.993 464.913,42.623 458.639,52.981 C454.655,43.221 445.792,38.591 435.584,38.391 C425.674,38.241 416.064,43.471 410.887,52.481 C409.244,42.773 402.671,38.241 393.36,38.041 L393.36,37.943 C386.938,37.593 379.27,39.586 371.65,44.516 C371.552,44.666 371.303,45.013 371.75,45.462 L379.42,54.027 C379.52,54.127 379.917,54.375 380.415,54.077 L380.515,54.027 C388.73,49.645 392.615,52.782 393.311,61.447 L393.311,67.122 L393.261,67.472 L393.261,118.06 C404.167,118.16 410.939,112.533 410.939,98.84 L410.939,70.855 C411.686,59.651 419.155,52.73 429.412,52.581 C440.268,52.581 444.352,60.399 444.202,72.449 L444.202,82.259 L444.252,82.259 L444.252,108.549 C444.252,115.369 447.587,118.159 452.915,118.109 L453.263,118.109 C458.593,118.109 461.928,115.321 461.928,108.549 L461.928,72.996 L461.878,72.996 L461.878,72.349 C461.878,60.149 469.646,52.479 480.352,52.331 C490.558,52.331 495.388,60.348 495.239,71.851 L495.239,73.791 L495.089,73.791 L495.089,108.5 C495.089,115.322 498.425,118.11 503.753,118.06 L504.103,118.06 C509.43,118.06 512.766,115.272 512.766,108.5 L512.766,67.52 C511.82,51.687 505.596,38.143 486.326,38.143 L486.325,38.141 Z M93.062,38.141 C82.008,37.993 71.652,42.623 65.378,52.981 C61.394,43.221 52.531,38.591 42.324,38.391 C32.414,38.241 22.804,43.471 17.627,52.481 C15.983,42.773 9.36,38.24 0,38.04 L0,57.26 C0,58.008 0.05,58.755 0.05,59.552 L0.05,108.548 C0.05,115.368 3.386,118.158 8.714,118.108 L9.062,118.108 C14.39,118.108 17.726,115.32 17.726,108.548 L17.726,72.698 C17.726,60.398 25.394,52.68 36.299,52.531 C47.153,52.531 51.236,60.351 51.086,72.399 L51.086,97.096 L51.136,97.096 L51.136,108.499 C51.136,115.321 54.472,118.109 59.8,118.059 L60.15,118.059 C65.477,118.059 68.813,115.271 68.813,108.499 L68.813,72.946 L68.713,72.946 L68.713,72.349 C68.713,60.149 76.481,52.479 87.187,52.331 C97.394,52.331 102.224,60.348 102.075,71.851 L102.075,98.887 C102.075,112.58 108.797,118.207 119.552,118.107 L119.552,67.567 C118.606,51.684 112.282,38.14 93.062,38.14 L93.062,38.141 Z" id="Shape" fill="#78787A"></path>
                <path d="M342.573,40.033 C328.83,40.033 315.685,49.643 308.963,60.747 L308.963,60.797 L308.663,61.245 C308.166,62.041 307.12,63.735 306.075,66.573 C305.627,67.817 305.178,69.013 304.929,70.257 C304.479,72 303.982,74.041 303.684,76.382 C302.04,87.336 298.704,92.762 291.784,96.946 C289.494,98.191 286.954,99.036 284.464,99.036 C274.854,99.036 264.597,92.166 264.597,79.419 C264.597,69.559 271.169,59.053 283.367,59.053 C291.883,59.053 296.563,63.036 298.257,64.879 C298.505,65.029 298.854,65.227 299.053,64.629 C300.945,57.709 305.028,52.231 307.866,49.094 C308.414,48.348 307.966,48.049 307.966,48.049 C305.376,45.759 297.758,40.182 283.319,40.182 C262.107,40.182 245.526,57.46 245.526,79.518 C245.526,103.666 265.294,118.056 284.364,118.056 C301.144,118.056 316.679,103.716 321.31,89.923 C323.104,85.093 323.154,78.521 325.046,72.943 C326.34,69.16 328.68,66.323 330.174,64.728 C333.66,61.641 338.041,59.152 342.424,59.152 C352.034,59.152 362.29,66.022 362.29,78.77 C362.29,88.63 355.718,99.135 343.52,99.135 C335.85,99.135 331.32,95.898 329.228,93.907 C328.88,93.607 328.68,93.757 328.581,93.957 C327.238,98.037 324.499,103.765 318.823,109.441 C318.723,109.591 318.573,109.939 319.023,110.287 C321.661,112.577 329.329,118.105 343.569,118.105 C364.781,118.105 381.362,100.827 381.362,78.769 C381.462,54.419 361.695,40.029 342.575,40.029" id="Shape" fill="#5EB6B1"></path>
            </g>
        </g>
    </g>
</svg>
